X: 09085
T: The OSTROUSHKO POLKA
C: Bob McQuillen 21 Nov 92
B: Bob's Note Book 9 p. 85
R: polka
Z: 2016 John Chambers <jc:trillian.mit.edu>
L: 1/8
M: C
K: D
[|\
| D3E G2A2 | B2d2 B2G2 | c2E2 ABAG | F2A2 G2E2 \
| D3E G2A2 | B2d2 B2G2 | cBAG E2FG | A2G2 G4 |
| D3E G2A2 | B2d2 B2G2 | c2E2 ABAG | F2A2 G2E2 \
| D3E G2A2 | B2d2 B2G2 | cBAG F2dc | B2G2 G4 |]
[|\
| d2B2 cedc | B2G2 G2AG | F2D2 A2D2 | B2D2 c2Bc \
| d2B2 cedc | B2G2 G2DD | E2AG F2dc | B2G2 G2Bc |
| d2B2 cedc | B2G2 G2AG | F2D2 G2FG | A2B2 c2Bc \
| d2B2 cedc | B2d2 g2fe | d2cB A2F2 | G2B2 G4 |]
%%begintext align
%% April Limber and I went out to Fiddle Tunes Dance Camp in Port Townsend, WA,
%% the last year that Frank Ferrel was there, back in the early eightys I think it was,
%% and there we met another wonderful fiddler named Peter Ostroushko.
%% Peter and I hit it off real well, and later he even wrote me a tune,
%% which I think was pretty nice of him. He's come east and played at concerts,
%% but so far I've had a gig myself every time he's been in the area.
%% I do so hope our paths will cross again, Peter - I look forward
%% to seeing you and hearing you play some more - 'til then, best wishes always -
%%endtext

%%sep 1 1 500

%%sep 1 1 500

